icons/svgs/pen-to-square-solid.svg

<svg width="24" height="24" viewBox="0 0 24 24" fill="none" xmlns="http://www.w3.org/2000/svg">
<path d="M20.3984 2.85938L21.1406 3.60156C22 4.46094 22 5.82812 21.1406 6.6875L19.9688 7.85938L16.1406 4.03125L17.3125 2.85938C18.1719 2 19.5391 2 20.3984 2.85938ZM8.71875 11.4531L15.2422 4.92969L19.0703 8.75781L12.5469 15.2812C12.3125 15.5156 12 15.7109 11.6875 15.8281L8.21094 16.9609C7.89844 17.0781 7.50781 17 7.27344 16.7266C7 16.4922 6.92188 16.1016 7.03906 15.7891L8.17188 12.3125C8.28906 12 8.48438 11.6875 8.71875 11.4531ZM5.75 4.5H9.5C10.1641 4.5 10.75 5.08594 10.75 5.75C10.75 6.45312 10.1641 7 9.5 7H5.75C5.04688 7 4.5 7.58594 4.5 8.25V18.25C4.5 18.9531 5.04688 19.5 5.75 19.5H15.75C16.4141 19.5 17 18.9531 17 18.25V14.5C17 13.8359 17.5469 13.25 18.25 13.25C18.9141 13.25 19.5 13.8359 19.5 14.5V18.25C19.5 20.3203 17.8203 22 15.75 22H5.75C3.67969 22 2 20.3203 2 18.25V8.25C2 6.17969 3.67969 4.5 5.75 4.5Z" fill="black"/>
</svg>

<svg xmlns="http://www.w3.org/2000/svg" width="24" height="24" fill="currentColor" class="icon-pen-to-square-solid" viewBox="0 0 24 24">
  <mask id="a" width="20" height="20" x="2" y="2" maskUnits="userSpaceOnUse" style="mask-type:alpha">
    <path d="m20.398 2.86.743.742a2.17 2.17 0 0 1 0 3.086l-1.172 1.171-3.828-3.828 1.172-1.172a2.17 2.17 0 0 1 3.085 0m-11.68 8.593 6.524-6.523 3.828 3.828-6.523 6.523c-.235.235-.547.43-.86.547L8.211 16.96a.86.86 0 0 1-.938-.234.86.86 0 0 1-.234-.938l1.133-3.476c.117-.313.312-.626.547-.86M5.75 4.5H9.5c.664 0 1.25.586 1.25 1.25 0 .703-.586 1.25-1.25 1.25H5.75c-.703 0-1.25.586-1.25 1.25v10c0 .703.547 1.25 1.25 1.25h10c.664 0 1.25-.547 1.25-1.25V14.5c0-.664.547-1.25 1.25-1.25.664 0 1.25.586 1.25 1.25v3.75c0 2.07-1.68 3.75-3.75 3.75h-10C3.68 22 2 20.32 2 18.25v-10C2 6.18 3.68 4.5 5.75 4.5"/>
  </mask>
  <g mask="url(#a)">
    <path d="M0 0h24v24H0z"/>
  </g>
</svg>
